packages/components/icon/src/assets/icons/checkbox.svg

<svg width="24" height="24" viewBox="0 0 24 24" fill="none" xmlns="http://www.w3.org/2000/svg">
<path fill-rule="evenodd" clip-rule="evenodd" d="M4 5.43182C4 5.04132 4.14101 4.70506 4.42304 4.42304C4.70506 4.14101 5.04132 4 5.43182 4H18.7955C19.186 4 19.5222 4.14101 19.8042 4.42304C20.0863 4.70506 20.2273 5.04132 20.2273 5.43182V18.7955C20.2273 19.186 20.0863 19.5222 19.8042 19.8042C19.5222 20.0863 19.186 20.2273 18.7955 20.2273H5.43182C5.04132 20.2273 4.70506 20.0863 4.42304 19.8042C4.14101 19.5222 4 19.186 4 18.7955V5.43182ZM18.7087 18.6653V5.4969H5.45351V18.6653H18.7087Z" fill="currentColor"/>
</svg>

<svg viewBox="0 0 24 24" fill="none" xmlns="http://www.w3.org/2000/svg"><path fill-rule="evenodd" clip-rule="evenodd" d="M4 5.432c0-.39.141-.727.423-1.009A1.377 1.377 0 0 1 5.432 4h13.364c.39 0 .726.141 1.008.423.282.282.423.618.423 1.009v13.364c0 .39-.14.726-.423 1.008a1.377 1.377 0 0 1-1.008.423H5.431c-.39 0-.727-.14-1.009-.423A1.377 1.377 0 0 1 4 18.796V5.431Zm14.709 13.233V5.497H5.454v13.168h13.255Z" fill="currentColor"/></svg>
